dist/svgs/unicons/line/moneybag.svg

<svg xmlns="http://www.w3.org/2000/svg" viewBox="0 0 24 24"><path d="M12 11a3 3 0 103 3 3 3 0 00-3-3zm0 4a1 1 0 111-1 1 1 0 01-1 1zm7-9h-3V5a3 3 0 00-3-3h-2a3 3 0 00-3 3v1H5a3 3 0 00-3 3v10a3 3 0 003 3h14a3 3 0 003-3V9a3 3 0 00-3-3zm-9-1a1 1 0 011-1h2a1 1 0 011 1v1h-4zM4 9a1 1 0 011-1h1a2 2 0 01-2 2zm1 11a1 1 0 01-1-1v-1a2 2 0 012 2zm15-1a1 1 0 01-1 1h-1a2 2 0 012-2zm0-3a4 4 0 00-4 4H8a4 4 0 00-4-4v-4a4 4 0 004-4h8a4 4 0 004 4zm0-6a2 2 0 01-2-2h1a1 1 0 011 1z"/></svg>

<svg xmlns="http://www.w3.org/2000/svg" viewBox="0 0 24 24"><path d="M12,11a3,3,0,1,0,3,3A3,3,0,0,0,12,11Zm0,4a1,1,0,1,1,1-1A1,1,0,0,1,12,15Zm7-9H16V5a3,3,0,0,0-3-3H11A3,3,0,0,0,8,5V6H5A3,3,0,0,0,2,9V19a3,3,0,0,0,3,3H19a3,3,0,0,0,3-3V9A3,3,0,0,0,19,6ZM10,5a1,1,0,0,1,1-1h2a1,1,0,0,1,1,1V6H10ZM4,9A1,1,0,0,1,5,8H6a2,2,0,0,1-2,2ZM5,20a1,1,0,0,1-1-1V18a2,2,0,0,1,2,2Zm15-1a1,1,0,0,1-1,1H18a2,2,0,0,1,2-2Zm0-3a4,4,0,0,0-4,4H8a4,4,0,0,0-4-4V12A4,4,0,0,0,8,8h8a4,4,0,0,0,4,4Zm0-6a2,2,0,0,1-2-2h1a1,1,0,0,1,1,1Z"/></svg>
